public/images/icons/certification-badge.svg

<svg fill="none" height="70" viewBox="0 0 70 70" width="70" xmlns="http://www.w3.org/2000/svg" xmlns:xlink="http://www.w3.org/1999/xlink"><linearGradient id="a"><stop offset="0" stop-color="#4300d3"/><stop offset="1" stop-color="#4300d3" stop-opacity="0"/></linearGradient><linearGradient id="b" gradientUnits="userSpaceOnUse" x1="32.3249" x2="7.62039" xlink:href="#a" y1="32.323" y2="37.124"/><linearGradient id="c"><stop offset="0" stop-color="#ff0f13"/><stop offset="1" stop-color="#bf0020" stop-opacity="0"/></linearGradient><linearGradient id="d" gradientUnits="userSpaceOnUse" x1="10.1446" x2="32.9918" xlink:href="#c" y1="37.2229" y2="42.2112"/><linearGradient id="e" gradientUnits="userSpaceOnUse" x1="60.7111" x2="36.0066" xlink:href="#a" y1="32.323" y2="37.124"/><linearGradient id="f" gradientUnits="userSpaceOnUse" x1="38.5308" x2="61.378" xlink:href="#c" y1="37.2229" y2="42.2112"/><linearGradient id="g" gradientUnits="userSpaceOnUse" x1="55.671" x2="11.7076" xlink:href="#a" y1="3.07996" y2="12.566"/><linearGradient id="h" gradientUnits="userSpaceOnUse" x1="15.8652" x2="56.4382" xlink:href="#c" y1="11" y2="20.8354"/><circle cx="35" cy="35" fill="#fff" r="35"/><path clip-rule="evenodd" d="m19.655 37.2229-8.655 10.5771 8.0001 1.6 3.2 9.6001 8.4139-13.3505" fill="#5c00c7" fill-opacity=".5" fill-rule="evenodd"/><path clip-rule="evenodd" d="m19.655 37.2229-8.655 10.5771 8.0001 1.6 3.2 9.6001 8.4139-13.3505" fill="url(#b)" fill-opacity=".25" fill-rule="evenodd"/><path clip-rule="evenodd" d="m19.655 37.2229-8.655 10.5771 8.0001 1.6 3.2 9.6001 8.4139-13.3505" fill="url(#d)" fill-opacity=".15" fill-rule="evenodd"/><path d="m19.655 37.2229-8.655 10.5771 8.0001 1.6 3.2 9.6001 8.4139-13.3505" stroke="#5c00c7" stroke-linecap="round" stroke-linejoin="round" stroke-width="2.88323"/><path d="m19.655 37.2229-8.655 10.5771 8.0001 1.6 3.2 9.6001 8.4139-13.3505" stroke="url(#b)" stroke-linecap="round" stroke-linejoin="round" stroke-opacity=".25" stroke-width="2.88323"/><path d="m19.655 37.2229-8.655 10.5771 8.0001 1.6 3.2 9.6001 8.4139-13.3505" stroke="url(#d)" stroke-linecap="round" stroke-linejoin="round" stroke-opacity=".15" stroke-width="2.88323"/><path clip-rule="evenodd" d="m50.3452 37.2229 8.655 10.5771-8 1.6-3.2001 9.6001-8.4139-13.3505" fill="#5c00c7" fill-opacity=".5" fill-rule="evenodd"/><path clip-rule="evenodd" d="m50.3452 37.2229 8.655 10.5771-8 1.6-3.2001 9.6001-8.4139-13.3505" fill="url(#e)" fill-opacity=".25" fill-rule="evenodd"/><path clip-rule="evenodd" d="m50.3452 37.2229 8.655 10.5771-8 1.6-3.2001 9.6001-8.4139-13.3505" fill="url(#f)" fill-opacity=".15" fill-rule="evenodd"/><path d="m50.3452 37.2229 8.655 10.5771-8 1.6-3.2001 9.6001-8.4139-13.3505" stroke="#5c00c7" stroke-linecap="round" stroke-linejoin="round" stroke-width="2.88323"/><path d="m50.3452 37.2229 8.655 10.5771-8 1.6-3.2001 9.6001-8.4139-13.3505" stroke="url(#e)" stroke-linecap="round" stroke-linejoin="round" stroke-opacity=".25" stroke-width="2.88323"/><path d="m50.3452 37.2229 8.655 10.5771-8 1.6-3.2001 9.6001-8.4139-13.3505" stroke="url(#f)" stroke-linecap="round" stroke-linejoin="round" stroke-opacity=".15" stroke-width="2.88323"/><g clip-rule="evenodd" fill-rule="evenodd"><path d="m35.0005 46.2002c9.7203 0 17.6001-7.8798 17.6001-17.6001s-7.8798-17.6001-17.6001-17.6001-17.6001 7.8798-17.6001 17.6001 7.8798 17.6001 17.6001 17.6001z" fill="#5c00c7" fill-opacity=".5"/><path d="m35.0005 46.2002c9.7203 0 17.6001-7.8798 17.6001-17.6001s-7.8798-17.6001-17.6001-17.6001-17.6001 7.8798-17.6001 17.6001 7.8798 17.6001 17.6001 17.6001z" fill="url(#g)" fill-opacity=".25"/><path d="m35.0005 46.2002c9.7203 0 17.6001-7.8798 17.6001-17.6001s-7.8798-17.6001-17.6001-17.6001-17.6001 7.8798-17.6001 17.6001 7.8798 17.6001 17.6001 17.6001z" fill="url(#h)" fill-opacity=".15"/><path d="m35.0005 46.2002c9.7203 0 17.6001-7.8798 17.6001-17.6001s-7.8798-17.6001-17.6001-17.6001-17.6001 7.8798-17.6001 17.6001 7.8798 17.6001 17.6001 17.6001z" stroke="#5c00c7" stroke-linecap="round" stroke-linejoin="round" stroke-width="2.88323"/><path d="m35.0005 46.2002c9.7203 0 17.6001-7.8798 17.6001-17.6001s-7.8798-17.6001-17.6001-17.6001-17.6001 7.8798-17.6001 17.6001 7.8798 17.6001 17.6001 17.6001z" stroke="url(#g)" stroke-linecap="round" stroke-linejoin="round" stroke-opacity=".25" stroke-width="2.88323"/><path d="m35.0005 46.2002c9.7203 0 17.6001-7.8798 17.6001-17.6001s-7.8798-17.6001-17.6001-17.6001-17.6001 7.8798-17.6001 17.6001 7.8798 17.6001 17.6001 17.6001z" stroke="url(#h)" stroke-linecap="round" stroke-linejoin="round" stroke-opacity=".15" stroke-width="2.88323"/></g><path d="m35.1785 37.7329c4.8094-2.3264 8.0039-4.9354 9.6315-7.6155 1.3781-2.2694 1.5497-4.4822.6844-6.3026-.7857-1.6528-2.382-2.833-4.2207-3.1371-1.9626-.3246-3.9598.3691-5.5433 2.0869l-.5519.5988-.5519-.5988c-1.5834-1.7178-3.5807-2.4115-5.5433-2.0869-1.8387.3041-3.435 1.4843-4.2207 3.1371-.8653 1.8204-.6937 4.0332.6845 6.3026 1.6275 2.6801 4.822 5.2891 9.6314 7.6155z" stroke="#fff" stroke-linecap="round" stroke-linejoin="round" stroke-width="2.43737"/><path d="m34.6896 31.1953-1.3085.6723c-.1337.0687-.2991.0185-.3694-.1122-.028-.052-.0377-.1116-.0276-.1695l.2501-1.4247c.0585-.3334-.0546-.6735-.3025-.9096l-1.0591-1.009c-.1082-.103-.1103-.2723-.0049-.3779.042-.0421.097-.0695.1565-.0779l1.4632-.2078c.3428-.0487.639-.259.7923-.5625l.6543-1.2958c.0668-.1323.2309-.1867.3664-.1214.0539.026.0976.0687.1243.1214l.6543 1.2958c.1532.3035.4495.5138.7922.5625l1.4632.2078c.1495.0212.2531.1568.2314.3029-.0087.0581-.0367.1119-.0798.1529l-1.0591 1.009c-.2478.2361-.3609.5762-.3024.9096l.25 1.4247c.0255.1454-.0745.2836-.2234.3085-.0593.01-.1203.0005-.1736-.0268l-1.3084-.6723c-.3066-.1576-.6729-.1576-.9795 0z" fill="#fff"/></svg>

<svg width="70" height="70" viewBox="0 0 70 70" fill="none" xmlns="http://www.w3.org/2000/svg">
<circle cx="35" cy="35" r="35" fill="white"/>
<path fill-rule="evenodd" clip-rule="evenodd" d="M19.655 37.2229L11 47.8L19.0001 49.4L22.2001 59.0001L30.614 45.6496" fill="#5C00C7" fill-opacity="0.5"/>
<path fill-rule="evenodd" clip-rule="evenodd" d="M19.655 37.2229L11 47.8L19.0001 49.4L22.2001 59.0001L30.614 45.6496" fill="url(#paint0_linear)" fill-opacity="0.25"/>
<path fill-rule="evenodd" clip-rule="evenodd" d="M19.655 37.2229L11 47.8L19.0001 49.4L22.2001 59.0001L30.614 45.6496" fill="url(#paint1_linear)" fill-opacity="0.15"/>
<path d="M19.655 37.2229L11 47.8L19.0001 49.4L22.2001 59.0001L30.614 45.6496" stroke="#5C00C7" stroke-width="2.88323" stroke-linecap="round" stroke-linejoin="round"/>
<path d="M19.655 37.2229L11 47.8L19.0001 49.4L22.2001 59.0001L30.614 45.6496" stroke="url(#paint2_linear)" stroke-opacity="0.25" stroke-width="2.88323" stroke-linecap="round" stroke-linejoin="round"/>
<path d="M19.655 37.2229L11 47.8L19.0001 49.4L22.2001 59.0001L30.614 45.6496" stroke="url(#paint3_linear)" stroke-opacity="0.15" stroke-width="2.88323" stroke-linecap="round" stroke-linejoin="round"/>
<path fill-rule="evenodd" clip-rule="evenodd" d="M50.3452 37.2229L59.0002 47.8L51.0002 49.4L47.8001 59.0001L39.3862 45.6496" fill="#5C00C7" fill-opacity="0.5"/>
<path fill-rule="evenodd" clip-rule="evenodd" d="M50.3452 37.2229L59.0002 47.8L51.0002 49.4L47.8001 59.0001L39.3862 45.6496" fill="url(#paint4_linear)" fill-opacity="0.25"/>
<path fill-rule="evenodd" clip-rule="evenodd" d="M50.3452 37.2229L59.0002 47.8L51.0002 49.4L47.8001 59.0001L39.3862 45.6496" fill="url(#paint5_linear)" fill-opacity="0.15"/>
<path d="M50.3452 37.2229L59.0002 47.8L51.0002 49.4L47.8001 59.0001L39.3862 45.6496" stroke="#5C00C7" stroke-width="2.88323" stroke-linecap="round" stroke-linejoin="round"/>
<path d="M50.3452 37.2229L59.0002 47.8L51.0002 49.4L47.8001 59.0001L39.3862 45.6496" stroke="url(#paint6_linear)" stroke-opacity="0.25" stroke-width="2.88323" stroke-linecap="round" stroke-linejoin="round"/>
<path d="M50.3452 37.2229L59.0002 47.8L51.0002 49.4L47.8001 59.0001L39.3862 45.6496" stroke="url(#paint7_linear)" stroke-opacity="0.15" stroke-width="2.88323" stroke-linecap="round" stroke-linejoin="round"/>
<path fill-rule="evenodd" clip-rule="evenodd" d="M35.0005 46.2002C44.7208 46.2002 52.6006 38.3204 52.6006 28.6001C52.6006 18.8798 44.7208 11 35.0005 11C25.2802 11 17.4004 18.8798 17.4004 28.6001C17.4004 38.3204 25.2802 46.2002 35.0005 46.2002Z" fill="#5C00C7" fill-opacity="0.5"/>
<path fill-rule="evenodd" clip-rule="evenodd" d="M35.0005 46.2002C44.7208 46.2002 52.6006 38.3204 52.6006 28.6001C52.6006 18.8798 44.7208 11 35.0005 11C25.2802 11 17.4004 18.8798 17.4004 28.6001C17.4004 38.3204 25.2802 46.2002 35.0005 46.2002Z" fill="url(#paint8_linear)" fill-opacity="0.25"/>
<path fill-rule="evenodd" clip-rule="evenodd" d="M35.0005 46.2002C44.7208 46.2002 52.6006 38.3204 52.6006 28.6001C52.6006 18.8798 44.7208 11 35.0005 11C25.2802 11 17.4004 18.8798 17.4004 28.6001C17.4004 38.3204 25.2802 46.2002 35.0005 46.2002Z" fill="url(#paint9_linear)" fill-opacity="0.15"/>
<path fill-rule="evenodd" clip-rule="evenodd" d="M35.0005 46.2002C44.7208 46.2002 52.6006 38.3204 52.6006 28.6001C52.6006 18.8798 44.7208 11 35.0005 11C25.2802 11 17.4004 18.8798 17.4004 28.6001C17.4004 38.3204 25.2802 46.2002 35.0005 46.2002Z" stroke="#5C00C7" stroke-width="2.88323" stroke-linecap="round" stroke-linejoin="round"/>
<path fill-rule="evenodd" clip-rule="evenodd" d="M35.0005 46.2002C44.7208 46.2002 52.6006 38.3204 52.6006 28.6001C52.6006 18.8798 44.7208 11 35.0005 11C25.2802 11 17.4004 18.8798 17.4004 28.6001C17.4004 38.3204 25.2802 46.2002 35.0005 46.2002Z" stroke="url(#paint10_linear)" stroke-opacity="0.25" stroke-width="2.88323" stroke-linecap="round" stroke-linejoin="round"/>
<path fill-rule="evenodd" clip-rule="evenodd" d="M35.0005 46.2002C44.7208 46.2002 52.6006 38.3204 52.6006 28.6001C52.6006 18.8798 44.7208 11 35.0005 11C25.2802 11 17.4004 18.8798 17.4004 28.6001C17.4004 38.3204 25.2802 46.2002 35.0005 46.2002Z" stroke="url(#paint11_linear)" stroke-opacity="0.15" stroke-width="2.88323" stroke-linecap="round" stroke-linejoin="round"/>
<path d="M35.1785 37.7329C39.9879 35.4065 43.1824 32.7975 44.81 30.1174C46.1881 27.848 46.3597 25.6352 45.4944 23.8148C44.7087 22.162 43.1124 20.9818 41.2737 20.6777C39.3111 20.3531 37.3139 21.0468 35.7304 22.7646L35.1785 23.3634L34.6266 22.7646C33.0432 21.0468 31.0459 20.3531 29.0833 20.6777C27.2446 20.9818 25.6483 22.162 24.8626 23.8148C23.9973 25.6352 24.1689 27.848 25.5471 30.1174C27.1746 32.7975 30.3691 35.4065 35.1785 37.7329Z" stroke="white" stroke-width="2.43737" stroke-linecap="round" stroke-linejoin="round"/>
<path d="M34.6896 31.1953L33.3811 31.8676C33.2474 31.9363 33.082 31.8861 33.0117 31.7554C32.9837 31.7034 32.974 31.6438 32.9841 31.5859L33.2342 30.1612C33.2927 29.8278 33.1796 29.4877 32.9317 29.2516L31.8726 28.2426C31.7644 28.1396 31.7623 27.9703 31.8677 27.8647C31.9097 27.8226 31.9647 27.7952 32.0242 27.7868L33.4874 27.579C33.8302 27.5303 34.1264 27.32 34.2797 27.0165L34.934 25.7207C35.0008 25.5884 35.1649 25.534 35.3004 25.5993C35.3543 25.6253 35.398 25.668 35.4247 25.7207L36.079 27.0165C36.2322 27.32 36.5285 27.5303 36.8712 27.579L38.3344 27.7868C38.4839 27.808 38.5875 27.9436 38.5658 28.0897C38.5571 28.1478 38.5291 28.2016 38.486 28.2426L37.4269 29.2516C37.1791 29.4877 37.066 29.8278 37.1245 30.1612L37.3745 31.5859C37.4 31.7313 37.3 31.8695 37.1511 31.8944C37.0918 31.9044 37.0308 31.8949 36.9775 31.8676L35.6691 31.1953C35.3625 31.0377 34.9962 31.0377 34.6896 31.1953Z" fill="white"/>
<defs>
<linearGradient id="paint0_linear" x1="32.3249" y1="32.323" x2="7.62039" y2="37.124" gradientUnits="userSpaceOnUse">
<stop stop-color="#4300D3"/>
<stop offset="1" stop-color="#4300D3" stop-opacity="0"/>
</linearGradient>
<linearGradient id="paint1_linear" x1="10.1446" y1="37.2229" x2="32.9918" y2="42.2112" gradientUnits="userSpaceOnUse">
<stop stop-color="#FF0F13"/>
<stop offset="1" stop-color="#BF0020" stop-opacity="0"/>
</linearGradient>
<linearGradient id="paint2_linear" x1="32.3249" y1="32.323" x2="7.62039" y2="37.124" gradientUnits="userSpaceOnUse">
<stop stop-color="#4300D3"/>
<stop offset="1" stop-color="#4300D3" stop-opacity="0"/>
</linearGradient>
<linearGradient id="paint3_linear" x1="10.1446" y1="37.2229" x2="32.9918" y2="42.2112" gradientUnits="userSpaceOnUse">
<stop stop-color="#FF0F13"/>
<stop offset="1" stop-color="#BF0020" stop-opacity="0"/>
</linearGradient>
<linearGradient id="paint4_linear" x1="60.7111" y1="32.323" x2="36.0066" y2="37.124" gradientUnits="userSpaceOnUse">
<stop stop-color="#4300D3"/>
<stop offset="1" stop-color="#4300D3" stop-opacity="0"/>
</linearGradient>
<linearGradient id="paint5_linear" x1="38.5308" y1="37.2229" x2="61.378" y2="42.2112" gradientUnits="userSpaceOnUse">
<stop stop-color="#FF0F13"/>
<stop offset="1" stop-color="#BF0020" stop-opacity="0"/>
</linearGradient>
<linearGradient id="paint6_linear" x1="60.7111" y1="32.323" x2="36.0066" y2="37.124" gradientUnits="userSpaceOnUse">
<stop stop-color="#4300D3"/>
<stop offset="1" stop-color="#4300D3" stop-opacity="0"/>
</linearGradient>
<linearGradient id="paint7_linear" x1="38.5308" y1="37.2229" x2="61.378" y2="42.2112" gradientUnits="userSpaceOnUse">
<stop stop-color="#FF0F13"/>
<stop offset="1" stop-color="#BF0020" stop-opacity="0"/>
</linearGradient>
<linearGradient id="paint8_linear" x1="55.671" y1="3.07996" x2="11.7076" y2="12.566" gradientUnits="userSpaceOnUse">
<stop stop-color="#4300D3"/>
<stop offset="1" stop-color="#4300D3" stop-opacity="0"/>
</linearGradient>
<linearGradient id="paint9_linear" x1="15.8652" y1="11" x2="56.4382" y2="20.8354" gradientUnits="userSpaceOnUse">
<stop stop-color="#FF0F13"/>
<stop offset="1" stop-color="#BF0020" stop-opacity="0"/>
</linearGradient>
<linearGradient id="paint10_linear" x1="55.671" y1="3.07996" x2="11.7076" y2="12.566" gradientUnits="userSpaceOnUse">
<stop stop-color="#4300D3"/>
<stop offset="1" stop-color="#4300D3" stop-opacity="0"/>
</linearGradient>
<linearGradient id="paint11_linear" x1="15.8652" y1="11" x2="56.4382" y2="20.8354" gradientUnits="userSpaceOnUse">
<stop stop-color="#FF0F13"/>
<stop offset="1" stop-color="#BF0020" stop-opacity="0"/>
</linearGradient>
</defs>
</svg>
